X: 1761
T: Sevdiğin Dünyalar Kadar...
C: Münir Nurettin Selçuk
O: Turkey
F: http://compmusic.upf.edu/node/140
N: huzzam--sarki--aksak--sevdigin_dunyalar--munir_nurettin_selcuk
N: makam= huzzam
N: form= sarki
N: usul= aksak = 9/8
M: 9/8
L: 1/16
K: C _1/4B _3/4e ^3/4f 
Q: 1/4=156
%%MIDI tuningsystem comma53
G2B4z2 G4 B4 z2 | G4B4cB cdB6  | z2B4c2 d4 d6 | \
w:  SAZ  |   |  Sev di ğin  dün  | 
B4c2 d2c2 d2B4z2  | 
w:  ya lar  *  ka *  dar   | 
B3A B2c2 d4 {f}e2d2 c2 | B3AB2 c2d4B4z2  | \
w:  Gel  *  de se  bir  *  gün   |  gel  *  *  de se    | 
d2e2 f4 f4 g2f2 e2 | 
w:  Ne si  var  öm rün   | 
d3cd2 e2f8{e}z2  | e4 e2e2 e2d2 e2d2 g2 | \
w:  *  *  ne si  var    |  Ves ve se  hep *  si   | 
f3ed2 e2d4z6  | c2d2 e4 e2d2 e2d2 g2 | 
w:  ves *  *  ve se    |  Ne si  var  öm *  rün   | 
f3ed2 e2d2 c2B4z2  | c4 c2c2 c2B2 f2e2 d2 | \
w:  *  *  ne si  var    |  Ves ve se  hep *  si   | 
c3Bc2 d2B4f4z2  | 
w:  ves *  *  ve se   SAZ  | 
f4 f4 f4 g2g4 | {f}f2 fed2 e2f4z6  | \
w:  Bir  şar kı  ge lir   |  *  u zak *  *  *  tan    | 
g4 g4 g2f2 a2g2 f2 | f3ef2 g2fe ded2 f4  | 
w:  Söy ler  aşk *  tan   |  *  *  ya şa mak *  *  *  tan    | 
f4 f4 f4 g2g4 | {f}f2 fed2 e2f4z6  | \
w:  Bir  şar kı  ge lir   |  *  u zak *  *  *  tan    | 
g4 g4 g2f2 a2g2 f2 | f3ef2 g2fe ded4z2  | 
w:  Söy ler  aşk *  tan   |  *  *  ya şa mak *  *  *  tan    | 
c2d2 _1/4e4 e2d2 {a}g2f2 e2 | d3cd2 _1/4e2d2 c2B4z2  | \
w:  Bir  *  ses  ki  *  *  ruh  |  tan  *  *  du dak *  tan    | 
c2c2 c4 c2B2 f2e2 d2 | 
w:  O  se se  yan *  dım   | 
d3cB2 c2d8-d2  | c2d2 _1/4e4 e2d2 {a}g2f2 e2 | \
w:  ah  *  o  se se    |  Bir  *  ses  ki  *  *  ruh  | 
d3cd2 _1/4e2d2 c2B4z2  | 
w:  tan  *  *  du dak *  tan    | 
c2c2 c4 c2B2 f2e2 d2 | c3Bc2 d2B4d2 c2d2  | \
w:  O  se se  yan *  dım   |  ah  *  o  se se  SAZ  | 
B4 c2c2 c2B2 f2e2 d2 | 
w:  SAZ  | 
c3Bc2 d2B4b6  | b4 b4 b4 c'2b2 ^a2 | \
w:   |  Ma dem  ki  gö nül   | 
g3fg2 ^a2b8-b2  | c'2c'2 c'2c'2 c'4 _7/8b4 a2 | 
w:  böy *  le  de li   |  De li ce si ne   | 
g3f=e2 f2g2 e2d2 b4  | b4 b4 b4 c'2b2 ^a2 | \
w:  sev *  me *  li    |  Ma dem  ki  gö nül   | 
g3fg2 ^a2b8-b2  | c'2c'2 c'2c'2 c'4 _7/8b4 a2 | 
w:  böy *  le  de li   |  De li ce si ne   | 
g3fe2 f2g4z6  | g2g2 .g4 z4 a2g2 f2 | \
w:  sev *  me li    |  U sa nıp  yi ne   | 
g3fe2 g2f8e2  | e4 e2e2 e2d2 e2d2 g2 | 
w:  sev *  me *  li    |  Bit me se  sev *  gi   | 
f3ed2 _1/4e2d4z6  | c2d2 _1/4e4 z4 g2f2 _3/4e2 | \
w:  bit *  *  me se    |  U sa nıp  yi ne   | 
d3cB2 g2f2 _1/4e2d2 c2B2  | 
w:  sev *  *  me li    | 
c4 c2c2 c2B2 f2e2 d2 | c3Bc2 d2B8z2  | |


